X:1
T:Diligite inimicos
T:Pierre de la Rue (?)
T:Source : Bicinia---Tomus II---Wittemberg---G.Rhau---1545. Editor : André Vierendeels (27/06/17).
T:Notes : Original clefs : C4, F4 Original note values have been halved Editorial accidentals above the staff Dotted brackets indicate black notes Signed "P.R."
T:Diligite inimicos
T:#
T:©
T:©
T:©
C:Pierre de la Rue (?)
Z:©
%%score [ 1 2 ]
L:1/8
Q:1/4=120
M:2/2
K:F
V:1 treble-8 nm="Tenor" snm="T"
V:2 bass nm="Bass" snm="B"
V:1
 d6 c2 | BA d4 c2 | d8 | z2 c2 d2 cB | A2 c2 B2 A2 | G3 A B2 c2- | cB B4 A2 | B4 z2 F2 | %8
w: Di- li-|gi- * * *|te|in- i- mi- *|* * * cos|ve- * * *||stros, et|
 G2 A2 B2 c2 | d2 _e2 d3 c | B2 AG F2 G2 | AG G4 F2 | G2 d2 d3 c | B2 AG F2 G2 | DEFG ABcd | %15
w: be- ne- fa- ci-|te his, qui o-|de- * * * *|* * * runt|vos, be- ne _|_ di- * * *||
 cB B4 A2 | B2 d2 d3 c | B2 A3 G G2- |"^#" G2 F2 G4 | z2 G2 G3 A | B3 c d4 | z2 d2 d3 d | %22
w: * * ci- *|te ma- le- *|* di- * cen-|* ti- bus,|et o- *|ra- * te|pro ca- lu-|
 A3 A c3 c | G4 z2 G2- | GA Bc d2 cB | A3 B c2 BA | G4 z2 G2 | A2 B2 c2 A2 | B2 c2 d4 | %29
w: mni- an- to- ri-|bus, ca-|* * lu- * mni- a- *|to- * * ri- *|bus, et|quae vul- tis ut|fa- ci- ant|
 z2 c2 B2 G2 | A2 d2 c2 A2 | B2 c2 d2 B2 | A2 c3 B AG | F2 GA B2 A2- |"^#" AG G4 F2 | G8 |] %36
w: vo- bis ho-|mi- nes, il- lis|si- mi- li- *|ter fa- * * *||* * * ci-|te.|
V:2
 B,6 A,2 | G,2 F,2 E,4 | D,4 z2 D,2 | G,2 F,E, D,2 C,2 | F,3 E, D,3 C, | B,,3 C, D,2 E,2- | %6
w: Di- li-|gi- * *|te in-|i- mi- * * *|* * * cos|ve- * * *|
 E,D,C,B,, C,4 |"^#" z2 B,,2 C,2 D,2 | E,2 F,2 G,2 A,2 | D,2 G,2 F,3 E, | D,2 C,B,, A,,2 G,,2 | %11
w: * * * * stros,|et be- ne-|fa- ci- te his,|qui o- de- *||
 C,B,,A,,G,, A,,4 | G,,4 z2 G,2 | G,2 F,E, D,2 C,2 | B,,C,D,E, F,2 E,D, | _E,D,C,B,, C,4 | %16
w: * * * * runt|vos, be-|ne _ _ _ _|di- * * * * * *|* * * * ci-|
 B,,4 z2 D,2 | D,3 C, B,,2 C,2 | A,,4 G,,2 G,,2 | G,,3 A,, B,,3 C, | D,4 z2 G,2 | G,3 G, D,3 D, | %22
w: te ma-|le- * * di-|cen- ti- bus,|et o- ra- *|te pro|ca- lu- mni- a-|
 F,3 F, C,4 | z2 C,3 D,E,F, | G,2 F,E, D,3 E, | F,G, A,4 G,F, | E,4 D,4 | z2 D,2 E,2 F,2 | %28
w: to- ri- bus,|ca- * * *|lu- * * mni- a-|to- * * * *|ri- bus,|et quae vul-|
 G,2 E,2 F,2 G,2 | A,4 z2 G,2 | F,2 D,2 E,2 A,2 | G,2 E,2 F,2 G,2 | F,2 E,D, C,2 D,2- | %33
w: tis ut fa- ci-|ant vo-|bis ho- mi- nes,|il- lis si- mi-|li- * * ter fa-|
 D,C,B,,A,, G,,2 A,,2 | B,,2 C,2 A,,4 | G,,8 |] %36
w: |* * ci-|te.|

